www/assets/icons/soup_kitchen.svg

<svg width="24" height="24" viewBox="0 0 24 24" xmlns="http://www.w3.org/2000/svg" fill='currentColor'><path d="M6.10035 7C5.76035 7.55 5.70035 7.97 5.70035 8.38C5.70035 9.15 6.70035 11 6.70035 12C6.70035 12.95 6.30035 13.5 6.30035 13.5H4.80035C4.80035 13.5 5.20035 12.95 5.20035 12C5.20035 11 4.20035 9.15 4.20035 8.38C4.20035 7.97 4.26035 7.55 4.60035 7H6.10035ZM11.1004 7C10.7604 7.55 10.7004 7.97 10.7004 8.38C10.7004 9.15 11.7004 11 11.7004 12C11.7004 12.95 11.3004 13.5 11.3004 13.5H12.8004C12.8004 13.5 13.2004 12.95 13.2004 12C13.2004 11 12.2004 9.15 12.2004 8.38C12.2004 7.97 12.2604 7.55 12.6004 7H11.1004ZM7.85035 7C7.51035 7.55 7.45035 7.97 7.45035 8.38C7.45035 9.15 8.45035 11.01 8.45035 12C8.45035 12.95 8.05035 13.5 8.05035 13.5H9.55035C9.55035 13.5 9.95035 12.95 9.95035 12C9.95035 11 8.95035 9.15 8.95035 8.38C8.95035 7.97 9.01035 7.55 9.35035 7H7.85035ZM21.1703 6.5C21.1703 6.5 21.3004 5.44 21.3004 5C21.3004 3.35 19.9504 2 18.3004 2C16.7604 2 15.4904 3.16 15.3204 4.65L14.2304 15H3.71035C3.11035 15 2.62035 15.53 2.71035 16.13C3.23035 19.46 6.09035 22 9.45035 22C12.9304 22 15.7903 19.27 16.1603 15.77L17.3104 4.9C17.3604 4.39 17.7804 4 18.3004 4C18.8504 4 19.3004 4.45 19.3004 5C19.3004 5.3 19.2003 6.25 19.2003 6.25L21.1703 6.5Z"/></svg>

<svg xmlns="http://www.w3.org/2000/svg" width="24" height="24" viewBox="0 0 24 24" fill='currentColor'><path d="M6.1 7c-.34.55-.4.97-.4 1.38 0 .77 1 2.62 1 3.62 0 .95-.4 1.5-.4 1.5H4.8s.4-.55.4-1.5c0-1-1-2.85-1-3.62 0-.41.06-.83.4-1.38zm5 0c-.34.55-.4.97-.4 1.38 0 .77 1 2.62 1 3.62 0 .95-.4 1.5-.4 1.5h1.5s.4-.55.4-1.5c0-1-1-2.85-1-3.62 0-.41.06-.83.4-1.38zM7.85 7c-.34.55-.4.97-.4 1.38 0 .77 1 2.63 1 3.62 0 .95-.4 1.5-.4 1.5h1.5s.4-.55.4-1.5c0-1-1-2.85-1-3.62 0-.41.06-.83.4-1.38zm13.32-.5s.13-1.06.13-1.5c0-1.65-1.35-3-3-3-1.54 0-2.81 1.16-2.98 2.65L14.23 15H3.71c-.6 0-1.09.53-1 1.13C3.23 19.46 6.09 22 9.45 22c3.48 0 6.34-2.73 6.71-6.23L17.31 4.9c.05-.51.47-.9.99-.9.55 0 1 .45 1 1 0 .3-.1 1.25-.1 1.25z"/></svg>
